X: 1049
T: Hicazkâr Aranağme (Sofyan)
C: ?
O: Turkey
F: http://compmusic.upf.edu/node/140
N: hicazkar--aranagme--sofyan--1--
N: makam= hicazkar
N: form= aranagme
N: usul= sofyan = 4/4
M: 4/4
L: 1/16
K: C _1/4B _7/8e _7/8A ^f
Q: 1/4=72
%%MIDI tuningsystem comma53
GBdB c2d2 GBdB c2d2  | edeg fedc d8  | 
w:  ARANAĞME  |   | 
gfeg f4 edce d4  | cBcd BAGF G8  | GBdB c2d2 GBdB c2d2  | 
w:   |   |  ARANAĞME  | 
edeg fedc d8  | gfeg f4 edce d4  | cBcd BAGF G8  | 
w:   |   |   | 
|


